Reedweeks/img/ct_2.svg

<svg width="24" height="24" viewBox="0 0 24 24" fill="none" xmlns="http://www.w3.org/2000/svg">
<g clip-path="url(#clip0_656:4642)">
<path d="M17.7848 21.1937V17.7936C17.7848 17.1717 17.2789 16.6658 16.657 16.6658H7.34261C6.72077 16.6658 6.21484 17.1717 6.21484 17.7936V21.1937C6.21484 21.8156 6.72072 22.3215 7.34261 22.3215H16.6571C17.279 22.3215 17.7848 21.8156 17.7848 21.1937ZM17.0817 21.1937C17.0817 21.4278 16.8912 21.6183 16.657 21.6183H7.34261C7.10847 21.6183 6.91797 21.4279 6.91797 21.1937V17.7936C6.91797 17.5594 7.10842 17.3689 7.34261 17.3689H16.6571C16.8912 17.3689 17.0817 17.5594 17.0817 17.7936V21.1937H17.0817Z" fill="#3B3943"/>
<path d="M15.6982 18.6167C15.3597 18.6167 8.64107 18.6167 8.30151 18.6167C8.10736 18.6167 7.94995 18.7741 7.94995 18.9683C7.94995 19.1625 8.10736 19.3198 8.30151 19.3198H13.9845L13.8557 20.284C13.8092 20.6317 14.08 20.9407 14.4305 20.9407H15.3593C15.71 20.9407 15.9805 20.6314 15.934 20.284L15.8031 19.3039C15.9461 19.2593 16.0498 19.1259 16.0498 18.9682C16.0498 18.7741 15.8924 18.6167 15.6982 18.6167ZM14.5713 20.2376L14.6939 19.3198H15.0958L15.2184 20.2376H14.5713Z" fill="#3B3943"/>
<path d="M20.47 10.2837C20.4698 10.2796 20.4696 10.2755 20.4694 10.2713L20.4694 10.271L20.2523 5.79689C20.1809 4.32417 19.2443 3.11339 17.9903 2.72339V0.671203C17.9903 0.301078 17.6892 0 17.3191 0H14.2836C13.9134 0 13.6124 0.301078 13.6124 0.671156V2.59055H10.3874V0.671156C10.3874 0.301078 10.0862 0 9.71615 0H6.68062C6.31054 0 6.00946 0.301078 6.00946 0.671156V2.72475C5.62251 2.84541 5.25749 3.04505 4.93921 3.31556C4.79127 3.44133 4.77323 3.66314 4.89899 3.81108C5.02471 3.95906 5.24662 3.97706 5.39455 3.8513C5.8206 3.48923 6.33674 3.29367 6.88049 3.29367C17.5995 3.29367 17.118 3.28931 17.3273 3.30398C18.5259 3.41597 19.4848 4.48528 19.5501 5.83092C19.7823 10.6199 19.769 10.325 19.769 10.3829C19.769 11.2459 19.0663 11.9506 18.1995 11.9506H17.7849V10.2018C17.7849 9.90727 17.5453 9.66764 17.2507 9.66764H15.6983C15.4037 9.66764 15.1641 9.90727 15.1641 10.2018V11.9506H8.8357V10.2018C8.8357 9.90727 8.59607 9.66764 8.30151 9.66764H6.7491C6.45454 9.66764 6.21491 9.90727 6.21491 10.2018V11.9506H5.8003C4.90973 11.9506 4.18907 11.2056 4.23266 10.305L4.4497 5.83092C4.46287 5.55961 4.51265 5.29406 4.59768 5.04164C4.6597 4.85761 4.56074 4.6582 4.37676 4.59623C4.19282 4.53427 3.99332 4.63317 3.93135 4.81716C3.8256 5.13108 3.76368 5.4607 3.74737 5.79684L3.53034 10.2709V10.271V10.2711C3.53029 10.2719 3.53029 10.2726 3.53024 10.2734C3.51266 10.6357 3.01855 20.7488 3.01855 20.8965C3.01855 22.6078 4.41191 24 6.12454 24H15.9593C16.1535 24 16.3109 23.8426 16.3109 23.6484C16.3109 23.4542 16.1535 23.2969 15.9593 23.2969H6.12454C4.79962 23.2969 3.72168 22.2201 3.72168 20.8966C3.72168 20.8088 3.69384 21.4115 4.15302 11.9459C4.5711 12.3855 5.16459 12.6538 5.80026 12.6538H6.21487V13.6921C6.21487 14.4146 6.80273 15.0025 7.52526 15.0025C8.24779 15.0025 8.83565 14.4146 8.83565 13.6921V12.6538H15.164V13.6921C15.164 14.3831 15.7187 15.0025 16.4744 15.0025C17.1929 15.0025 17.7848 14.4182 17.7848 13.6921V12.6538C18.2155 12.6538 19.0964 12.735 19.8466 11.9459C20.3055 21.4052 20.2779 20.808 20.2779 20.8966C20.2779 22.2201 19.2 23.2969 17.8751 23.2969H17.5999C17.4057 23.2969 17.2483 23.4542 17.2483 23.6484C17.2483 23.8426 17.4057 24 17.5999 24H17.8751C19.5877 24 20.9811 22.6078 20.9811 20.8966C20.9811 20.7827 21.0133 21.4832 20.47 10.2837V10.2837ZM15.6549 2.58919C15.292 2.5897 14.8519 2.59027 14.3155 2.5905V0.703125H17.2872V2.59566C17.1101 2.58558 15.8527 2.58895 15.6549 2.58919V2.58919ZM6.72801 2.59505C6.72285 2.59533 6.71774 2.59519 6.71259 2.59552V0.703125H9.68423V2.59059C6.61298 2.59059 6.84651 2.58872 6.72801 2.59505V2.59505ZM8.13257 13.6921C8.13257 14.027 7.86013 14.2994 7.5253 14.2994C7.19048 14.2994 6.91804 14.0269 6.91804 13.6921C6.91804 12.0424 6.91804 11.77 6.91804 10.3708H8.13257V13.6921ZM16.4744 14.2994C16.1391 14.2994 15.8671 14.0262 15.8671 13.6921C15.8671 12.0424 15.8671 11.77 15.8671 10.3708H17.0817V13.6921C17.0817 13.6965 17.0811 13.701 17.0811 13.7055C17.0737 14.033 16.8058 14.2994 16.4744 14.2994V14.2994Z" fill="#3B3943"/>
</g>
<defs>
<clipPath id="clip0_656:4642">
<rect width="24" height="24" fill="white"/>
</clipPath>
</defs>
</svg>

<svg width="24" height="24" fill="none" xmlns="http://www.w3.org/2000/svg"><g clip-path="url(#a)" fill="#3B3943"><path d="M17.785 21.194v-3.4c0-.622-.506-1.128-1.128-1.128H7.343a1.13 1.13 0 0 0-1.128 1.128v3.4c0 .622.506 1.128 1.128 1.128h9.314c.622 0 1.128-.506 1.128-1.128Zm-.703 0c0 .234-.19.424-.425.424H7.343a.425.425 0 0 1-.425-.424v-3.4c0-.235.19-.425.425-.425h9.314c.234 0 .425.19.425.425v3.4Z"/><path d="M15.698 18.617H8.302a.352.352 0 0 0 0 .703h5.683l-.13.964a.58.58 0 0 0 .575.657h.93a.58.58 0 0 0 .574-.657l-.13-.98a.352.352 0 0 0-.106-.687Zm-1.127 1.62.123-.917h.402l.122.918h-.647Z"/><path d="M20.47 10.284v-.013l-.218-4.474c-.071-1.473-1.008-2.684-2.262-3.074V.671A.672.672 0 0 0 17.32 0h-3.036a.672.672 0 0 0-.672.671v1.92h-3.225V.67A.672.672 0 0 0 9.717 0H6.68a.672.672 0 0 0-.672.671v2.054c-.386.12-.752.32-1.07.59a.352.352 0 1 0 .456.536 2.279 2.279 0 0 1 1.485-.557c10.72 0 10.238-.005 10.447.01 1.199.112 2.158 1.181 2.223 2.527.232 4.789.219 4.494.219 4.552a1.57 1.57 0 0 1-1.57 1.568h-.414V10.2a.535.535 0 0 0-.534-.533h-1.553a.535.535 0 0 0-.534.534v1.749H8.836V10.2a.535.535 0 0 0-.534-.533H6.749a.535.535 0 0 0-.534.534v1.749H5.8a1.57 1.57 0 0 1-1.567-1.646l.217-4.474c.013-.271.063-.537.148-.79a.352.352 0 1 0-.667-.224 3.617 3.617 0 0 0-.184.98L3.53 10.27v.002c-.017.363-.511 10.476-.511 10.623A3.108 3.108 0 0 0 6.125 24h9.834a.352.352 0 1 0 0-.703H6.125a2.404 2.404 0 0 1-2.403-2.4c0-.088-.028.515.431-8.951a2.28 2.28 0 0 0 1.647.708h.415v1.038c0 .723.588 1.31 1.31 1.31.723 0 1.31-.587 1.31-1.31v-1.038h6.329v1.038a1.31 1.31 0 0 0 2.62 0v-1.038c.431 0 1.312.081 2.063-.708.458 9.46.43 8.862.43 8.95 0 1.324-1.077 2.4-2.402 2.4H17.6a.351.351 0 1 0 0 .704h.275a3.108 3.108 0 0 0 3.106-3.103c0-.114.032.586-.511-10.613Zm-4.815-7.695-1.34.002V.703h2.972v1.893c-.177-.01-1.434-.007-1.632-.007Zm-8.927.006h-.015V.704h2.971v1.888c-3.071 0-2.837-.002-2.956.004Zm1.405 11.097a.608.608 0 0 1-1.215 0v-3.321h1.215v3.321Zm8.341.607a.608.608 0 0 1-.607-.607v-3.321h1.215v3.335a.608.608 0 0 1-.608.593Z"/></g><defs><clipPath id="a"><path fill="#fff" d="M0 0h24v24H0z"/></clipPath></defs></svg>
